src/assets/img/tools/react.svg

<svg width="24" height="22" viewBox="0 0 24 22" fill="none" xmlns="http://www.w3.org/2000/svg">
    <path d="M12 8.861C11.7191 8.861 11.441 8.91633 11.1814 9.02382C10.9219 9.13132 10.6861 9.28887 10.4875 9.4875C10.2889 9.68612 10.1313 9.92193 10.0238 10.1814C9.91633 10.441 9.861 10.7191 9.861 11C9.861 11.2809 9.91633 11.559 10.0238 11.8186C10.1313 12.0781 10.2889 12.3139 10.4875 12.5125C10.6861 12.7111 10.9219 12.8687 11.1814 12.9762C11.441 13.0837 11.7191 13.139 12 13.139C12.2809 13.139 12.559 13.0837 12.8186 12.9762C13.0781 12.8687 13.3139 12.7111 13.5125 12.5125C13.7111 12.3139 13.8687 12.0781 13.9762 11.8186C14.0837 11.559 14.139 11.2809 14.139 11C14.139 10.7191 14.0837 10.441 13.9762 10.1814C13.8687 9.92193 13.7111 9.68612 13.5125 9.4875C13.3139 9.28887 13.0781 9.13132 12.8186 9.02382C12.559 8.91633 12.2809 8.861 12 8.861ZM6.008 15.255L5.536 15.135C2.018 14.246 0 12.737 0 10.996C0 9.255 2.018 7.746 5.536 6.857L6.008 6.738L6.141 7.206C6.49738 8.43371 6.95322 9.63034 7.504 10.784L7.605 10.997L7.504 11.21C6.95231 12.3633 6.49643 13.56 6.141 14.788L6.008 15.255ZM5.317 7.95C2.643 8.701 1.002 9.85 1.002 10.996C1.002 12.141 2.643 13.29 5.317 14.042C5.64402 13.0019 6.03887 11.9844 6.499 10.996C6.03834 10.0078 5.64348 8.99026 5.317 7.95ZM17.992 15.255L17.859 14.786C17.503 13.5584 17.0468 12.362 16.495 11.209L16.394 10.996L16.495 10.783C17.0466 9.62957 17.5028 8.4329 17.859 7.205L17.992 6.737L18.465 6.856C21.982 7.745 24 9.254 24 10.996C24 12.738 21.982 14.246 18.465 15.135L17.992 15.255ZM17.501 10.996C17.981 12.035 18.378 13.056 18.683 14.042C21.358 13.29 22.998 12.141 22.998 10.996C22.998 9.85 21.357 8.702 18.683 7.95C18.3564 8.99022 17.9616 10.0078 17.501 10.996ZM5.31 7.945L5.177 7.478C4.188 3.992 4.488 1.494 6 0.622001C7.483 -0.233999 9.864 0.777 12.359 3.338L12.699 3.687L12.359 4.036C11.4725 4.95761 10.6624 5.94989 9.937 7.003L9.802 7.196L9.567 7.216C8.29091 7.3166 7.02509 7.5206 5.782 7.826L5.31 7.945ZM7.206 1.315C6.938 1.315 6.701 1.373 6.501 1.488C5.507 2.061 5.331 4.053 6.016 6.741C7.08164 6.50393 8.16159 6.33658 9.249 6.24C9.87642 5.34788 10.5619 4.49805 11.301 3.696C9.741 2.177 8.264 1.315 7.206 1.315ZM16.795 21.677C16.794 21.677 16.794 21.677 16.795 21.677C15.37 21.677 13.54 20.604 11.641 18.654L11.301 18.305L11.641 17.956C12.5273 17.0341 13.337 16.0415 14.062 14.988L14.197 14.795L14.431 14.775C15.7078 14.675 16.9743 14.4713 18.218 14.166L18.69 14.047L18.824 14.515C19.811 17.999 19.512 20.498 18 21.369C17.6327 21.5767 17.2169 21.683 16.795 21.677ZM12.699 18.296C14.259 19.815 15.736 20.677 16.794 20.677H16.795C17.062 20.677 17.3 20.619 17.499 20.504C18.493 19.931 18.67 17.938 17.984 15.25C16.9181 15.4874 15.8378 15.6548 14.75 15.751C14.1233 16.6437 13.4382 17.4939 12.699 18.296ZM18.69 7.945L18.218 7.826C16.9744 7.51972 15.7079 7.31571 14.431 7.216L14.197 7.196L14.062 7.003C13.3374 5.94956 12.5277 4.95724 11.641 4.036L11.301 3.687L11.641 3.338C14.135 0.778001 16.515 -0.232999 18 0.622001C19.512 1.494 19.812 3.992 18.824 7.477L18.69 7.945ZM14.75 6.24C15.892 6.344 16.977 6.513 17.984 6.741C18.67 4.053 18.493 2.061 17.499 1.488C16.511 0.917001 14.654 1.792 12.699 3.696C13.4377 4.49808 14.1229 5.34792 14.75 6.24ZM7.206 21.677C6.7838 21.6831 6.36756 21.5768 6 21.369C4.488 20.498 4.188 18 5.177 14.515L5.309 14.047L5.781 14.166C6.936 14.457 8.21 14.662 9.566 14.775L9.801 14.795L9.935 14.988C10.6606 16.0413 11.4706 17.0339 12.357 17.956L12.697 18.305L12.357 18.654C10.459 20.604 8.629 21.677 7.206 21.677ZM6.016 15.25C5.33 17.938 5.507 19.931 6.501 20.504C7.488 21.067 9.344 20.199 11.301 18.296C10.5622 17.4933 9.87674 16.6432 9.249 15.751C8.16154 15.6548 7.08156 15.4875 6.016 15.25ZM12 15.878C11.177 15.878 10.331 15.842 9.484 15.772L9.249 15.752L9.114 15.559C8.63491 14.8706 8.18452 14.1627 7.764 13.437C7.34472 12.7108 6.95572 11.9675 6.598 11.209L6.498 10.996L6.598 10.783C6.95567 10.0245 7.34467 9.28121 7.764 8.555C8.178 7.839 8.633 7.125 9.114 6.433L9.249 6.24L9.484 6.22C11.1587 6.078 12.8423 6.078 14.517 6.22L14.751 6.24L14.885 6.433C15.8442 7.81006 16.6861 9.26517 17.402 10.783L17.503 10.996L17.402 11.209C16.6878 12.7277 15.8458 14.183 14.885 15.559L14.751 15.752L14.517 15.772C13.67 15.842 12.823 15.878 12 15.878ZM9.803 14.794C11.283 14.905 12.717 14.905 14.198 14.794C15.0248 13.5853 15.7589 12.3156 16.394 10.996C15.7601 9.67558 15.0256 8.40584 14.197 7.198C12.7344 7.087 11.2656 7.087 9.803 7.198C8.97408 8.40561 8.23957 9.67538 7.606 10.996C8.24176 12.3155 8.97618 13.5851 9.803 14.794Z"
          fill="#61DAFB"/>
</svg>

<svg width="24" height="22" fill="none" xmlns="http://www.w3.org/2000/svg"><path d="M12 8.861a2.14 2.14 0 100 4.28 2.14 2.14 0 000-4.28zm-5.992 6.394l-.472-.12C2.018 14.246 0 12.737 0 10.996s2.018-3.25 5.536-4.139l.472-.119.133.468a23.53 23.53 0 001.363 3.578l.101.213-.101.213a23.31 23.31 0 00-1.363 3.578l-.133.467zM5.317 7.95c-2.674.751-4.315 1.9-4.315 3.046 0 1.145 1.641 2.294 4.315 3.046.327-1.04.722-2.058 1.182-3.046A24.751 24.751 0 015.317 7.95zm12.675 7.305l-.133-.469a23.354 23.354 0 00-1.364-3.577l-.101-.213.101-.213a23.412 23.412 0 001.364-3.578l.133-.468.473.119C21.982 7.745 24 9.254 24 10.996c0 1.742-2.018 3.25-5.535 4.139l-.473.12zm-.491-4.259c.48 1.039.877 2.06 1.182 3.046 2.675-.752 4.315-1.901 4.315-3.046 0-1.146-1.641-2.294-4.315-3.046a24.782 24.782 0 01-1.182 3.046zM5.31 7.945l-.133-.467C4.188 3.992 4.488 1.494 6 .622c1.483-.856 3.864.155 6.359 2.716l.34.349-.34.349a23.552 23.552 0 00-2.422 2.967l-.135.193-.235.02c-1.276.1-2.542.305-3.785.61l-.472.119zm1.896-6.63c-.268 0-.505.058-.705.173-.994.573-1.17 2.565-.485 5.253a25.122 25.122 0 013.233-.501 24.846 24.846 0 012.052-2.544c-1.56-1.519-3.037-2.381-4.095-2.381zm9.589 20.362c-.001 0-.001 0 0 0-1.425 0-3.255-1.073-5.154-3.023l-.34-.349.34-.349a23.53 23.53 0 002.421-2.968l.135-.193.234-.02c1.277-.1 2.543-.304 3.787-.609l.472-.119.134.468c.987 3.484.688 5.983-.824 6.854a2.38 2.38 0 01-1.205.308zm-4.096-3.381c1.56 1.519 3.037 2.381 4.095 2.381h.001c.267 0 .505-.058.704-.173.994-.573 1.171-2.566.485-5.254a25.01 25.01 0 01-3.234.501 24.681 24.681 0 01-2.051 2.545zM18.69 7.945l-.472-.119a23.48 23.48 0 00-3.787-.61l-.234-.02-.135-.193a23.408 23.408 0 00-2.421-2.967l-.34-.349.34-.349C14.135.778 16.515-.233 18 .622c1.512.872 1.812 3.37.824 6.855l-.134.468zM14.75 6.24c1.142.104 2.227.273 3.234.501.686-2.688.509-4.68-.485-5.253-.988-.571-2.845.304-4.8 2.208A24.855 24.855 0 0114.75 6.24zM7.206 21.677A2.38 2.38 0 016 21.369c-1.512-.871-1.812-3.369-.823-6.854l.132-.468.472.119c1.155.291 2.429.496 3.785.609l.235.02.134.193a23.61 23.61 0 002.422 2.968l.34.349-.34.349c-1.898 1.95-3.728 3.023-5.151 3.023zm-1.19-6.427c-.686 2.688-.509 4.681.485 5.254.987.563 2.843-.305 4.8-2.208a25.004 25.004 0 01-2.052-2.545 24.978 24.978 0 01-3.233-.501zm5.984.628c-.823 0-1.669-.036-2.516-.106l-.235-.02-.135-.193c-.48-.688-.93-1.396-1.35-2.122-.42-.726-.808-1.47-1.166-2.228l-.1-.213.1-.213c.358-.758.747-1.502 1.166-2.228.414-.716.869-1.43 1.35-2.122l.135-.193.235-.02a29.785 29.785 0 015.033 0l.234.02.134.193a30.005 30.005 0 012.517 4.35l.101.213-.101.213a29.604 29.604 0 01-2.517 4.35l-.134.193-.234.02c-.847.07-1.694.106-2.517.106zm-2.197-1.084c1.48.111 2.914.111 4.395 0a29.01 29.01 0 002.196-3.798 28.575 28.575 0 00-2.197-3.798 29.031 29.031 0 00-4.394 0 28.477 28.477 0 00-2.197 3.798 29.11 29.11 0 002.197 3.798z" fill="#61DAFB"/></svg>
